X:1
T:Haven (Lemare), 77.77
T:Haven (Lemare), 77.77
T:Edwin Henry Lemare (1865-1934)
T:Public Domain Courtesy of the Cyber Hymnal™
C:Edwin Henry Lemare (1865-1934)
Z:Public Domain
Z:Courtesy of the Cyber Hymnal™
%%score ( 1 2 ) ( 3 4 )
L:1/8
M:3/4
K:Ab
V:1 treble 
V:2 treble 
V:3 bass 
V:4 bass 
V:1
 ([Ec]2 [Fd]2) [Ec]2 | [=DB]4 [DF]2 | ([DB]2 [Ec]2) [DB]2 | [CA]6 | (F2 [EG]2) [EA]2 | %5
 [Ed]4 [Ec]2 | (c2 B2) [=DA]2 | [B,B]6 | ([Ec]2 [Fd]2) [Ec]2 | (c2 B2) [_DF]2 | (B2 c2) [DB]2 | %11
 [CA]6 | (F2 [EG]2) [EA]2 | (e2 d2) [Ec]2 | ([FB]2 [EA]2) [DG]2 | [CA]6 |] %16
V:2
 x6 | x6 | x6 | x6 | F2 x4 | x6 | F4 x2 | x6 | x6 | =D4 x2 | D4 x2 | x6 | F2 x4 | E4 x2 | x6 | %15
 x6 |] %16
V:3
 [A,,A,]4 A,2 | [F,A,]4 [F,A,]2 | [E,G,]4 [E,G,]2 | [A,,A,]6 | (A,2 B,2) [C,A,]2 | %5
 [B,,G,]4 [C,A,]2 | A,4 [F,A,]2 | (A,4 G,2) | [A,,A,]4 [A,,A,]2 | [B,,A,]4 [F,A,]2 | %10
 [E,G,]4 [E,G,]2 | [F,A,]6 | (A,2 B,2) [C,A,]2 | [B,,G,]4 [C,A,]2 | ([D,D]2 [E,C]2) [E,B,]2 | %15
 [A,,A,]6 |] %16
V:4
 x4 A,2 | x6 | x6 | x6 | D,4 x2 | x6 | (D,2 =D,2) x2 | E,6 | x6 | x6 | x6 | x6 | D,4 x2 | x6 | x6 | %15
 x6 |] %16

